X:11775
T:Maiblumen-Walzer FC (wz02054)
S:Hanny Christen. Bd.II  St. Gallen II, Graubünden, Tessin. S.297 (wz02054) orig. F,C
S: Graubünden. Repertoire von Peter Davoli, Davos/Samedan
S:Überliefert vermutlich durch Joggi Stocker (1889-1956)
%%MIDI program 21
O:Switzerland
R:Walzer
M:3/4
L:1/4
K:F %%MIDI gchordon
"F"AF>A | c3 | cA>c | f3 | "C7"e/e/eg | d2e |1 "F"f/f/fa | c3 :|2 "F"fa>g | 
fzg |: [K:C] "C"g>e d/c/ | "G7"Ba>B | Bg>B | "C"ceG | e>e d/c/ | "G7"BfG |1 f>f e/d/ | "C"cag :|2 
g/g/gB | "C"czc |: [K:F] "F"A2c | d2A | ca>a | a2a/a/ | agf | fed | "C7"cg>g | 
g2c | =B2c | d2c | eb>b | a2a | g2d | e2c | "F"f3 | fzc :: "C7"b>ge | 
dc2 | "F"fA>d | c3 | "C7"ce>f |1 g2c | "F"cf>g | a3 :|2 g2b | a2g | "F"fzz |] 
% wz02072
% Sep 29, 2016

